public/svg/arrow.svg

<svg width="321" height="149" class="arrow" viewBox="0 0 321 149" fill="#232323" xmlns="http://www.w3.org/2000/svg">
    <path
        d="M23.2617 20.5464C22.9219 19.2908 23.6675 17.9995 24.9236 17.6617V17.6617C26.1814 17.3234 27.4748 18.0693 27.8158 19.3264C28.3461 21.2809 28.8851 23.237 29.4371 25.1927C29.791 26.4462 29.0688 27.7528 27.8171 28.1131V28.1131C26.5654 28.4734 25.2581 27.7508 24.9043 26.4971C24.3446 24.5136 23.7981 22.5287 23.2617 20.5464ZM29.47 41.4511C29.0568 40.2174 29.735 38.888 30.9722 38.4855V38.4855C32.2105 38.0827 33.5396 38.7611 33.9534 39.9958C34.5915 41.8994 35.253 43.7918 35.9411 45.6696C36.3891 46.8919 35.7794 48.2531 34.5627 48.7164V48.7164C33.3454 49.1798 31.9816 48.5689 31.5335 47.3459C30.8182 45.394 30.1319 43.4275 29.47 41.4511ZM37.6067 61.8395C37.0419 60.6669 37.5604 59.2657 38.7427 58.7212V58.7212C39.9249 58.1768 41.3225 58.6955 41.8874 59.868C42.7627 61.6851 43.6646 63.4481 44.5847 65.1433C45.2059 66.2877 44.8136 67.7264 43.6822 68.3709V68.3709C42.5515 69.0151 41.1106 68.6217 40.4895 67.4782C39.5059 65.6673 38.5423 63.782 37.6067 61.8395ZM49.0085 80.769C48.2218 79.731 48.4652 78.2552 49.523 77.4953V77.4953C50.5795 76.7364 52.0487 76.979 52.8362 78.0144C54.3343 79.984 55.9015 81.8735 57.509 83.653V83.653C57.8328 84.0068 57.81 84.5556 57.458 84.8813L55.3115 86.8672C54.9375 87.2132 54.3536 87.1891 54.0094 86.8135V86.8135C52.2841 84.9066 50.6089 82.8806 49.0085 80.769ZM64.7998 96.4761C63.7463 95.7119 63.5628 94.2281 64.3614 93.2004V93.2004C65.1599 92.1726 66.6381 91.9902 67.6935 92.7517C69.249 93.874 70.8586 94.9344 72.5082 95.9246C73.6239 96.5943 74.0376 98.0246 73.4073 99.1631V99.1631C72.7766 100.302 71.3395 100.718 70.2214 100.05C68.3611 98.9392 66.5475 97.7439 64.7998 96.4761ZM84.6859 106.636C83.4478 106.235 82.8166 104.88 83.2601 103.656V103.656C83.7037 102.433 85.0541 101.805 86.2934 102.203C88.1287 102.791 89.975 103.289 91.8166 103.693C93.0889 103.972 93.9467 105.19 93.7205 106.473V106.473C93.4944 107.755 92.2703 108.616 90.9975 108.341C88.8913 107.885 86.7809 107.314 84.6859 106.636ZM104.517 107.315C104.484 106.013 105.515 104.938 106.813 104.839C108.691 104.697 110.536 104.441 112.332 104.073C113.608 103.812 114.897 104.555 115.231 105.813V105.813C115.564 107.072 114.815 108.368 113.542 108.637C111.391 109.091 109.179 109.399 106.931 109.559C105.632 109.652 104.549 108.617 104.517 107.315V107.315ZM125.235 101.719C124.588 100.589 124.986 99.152 126.074 98.4363C126.175 98.3704 126.275 98.3039 126.375 98.237C127.791 97.2886 129.154 96.2495 130.503 95.0889C131.49 94.2402 132.977 94.2762 133.872 95.2219V95.2219C134.766 96.1673 134.728 97.6629 133.745 98.5153C132.198 99.8571 130.607 101.078 128.996 102.156C128.804 102.285 128.611 102.412 128.417 102.538C127.325 103.245 125.881 102.849 125.235 101.719V101.719ZM141.039 87.1149C140.004 86.3268 139.806 84.8505 140.567 83.7959C141.628 82.3263 142.73 80.7176 143.922 78.8998C144.636 77.8112 146.093 77.4892 147.189 78.1906V78.1906C148.286 78.892 148.608 80.3509 147.894 81.4397C146.625 83.3746 145.451 85.0849 144.318 86.6501C143.555 87.7042 142.074 87.9034 141.039 87.1149V87.1149ZM152.926 68.9803C151.82 68.2927 151.48 66.8382 152.176 65.7374C153.234 64.0639 154.387 62.2793 155.606 60.4875C156.338 59.4114 157.81 59.1601 158.873 59.9118V59.9118C159.935 60.6634 160.186 62.1333 159.454 63.2099C158.295 64.9176 157.192 66.6244 156.177 68.2295C155.482 69.3289 154.031 69.6673 152.926 68.9803V68.9803ZM165.679 51.4796C164.732 50.5867 164.684 49.0902 165.614 48.1793C167.259 46.5682 168.93 45.1333 170.656 43.8473C171.7 43.0699 173.167 43.3673 173.888 44.4501V44.4501C174.61 45.5326 174.313 46.9899 173.275 47.774C171.835 48.8614 170.435 50.0684 169.049 51.4157C168.115 52.3233 166.627 52.3725 165.679 51.4796V51.4796ZM183.607 39.7273C183.206 38.4898 183.882 37.1548 185.14 36.8227C187.28 36.2577 189.494 35.8522 191.759 35.6114C193.053 35.4739 194.166 36.4748 194.239 37.7741V37.7741C194.312 39.0746 193.315 40.1804 192.02 40.3254C190.166 40.5332 188.355 40.8637 186.6 41.314C185.338 41.6376 184.009 40.9665 183.607 39.7273V39.7273ZM207.025 41.0551C205.746 40.8138 204.857 39.6175 205.049 38.3295V38.3295C205.242 37.041 206.443 36.1493 207.724 36.3878C209.773 36.7694 211.88 37.2562 214.024 37.8456C215.28 38.1907 215.981 39.5119 215.602 40.7577V40.7577C215.223 42.0037 213.906 42.7024 212.649 42.3592C210.733 41.8357 208.853 41.3998 207.025 41.0551ZM227.039 47.5826C225.848 47.0565 225.283 45.6767 225.787 44.4763V44.4763C226.291 43.2744 227.675 42.7076 228.868 43.2338C230.725 44.053 232.614 44.9352 234.572 45.8965C235.741 46.4705 236.205 47.8915 235.615 49.0531V49.0531C235.026 50.2145 233.608 50.6766 232.439 50.1031C230.584 49.1935 228.795 48.3586 227.039 47.5826ZM246.039 57.4088C244.914 56.7644 244.52 55.3322 245.158 54.2032V54.2032C245.801 53.065 247.247 52.6672 248.382 53.3164L249.01 53.6762C250.541 54.5604 252.097 55.4484 253.672 56.3305C254.806 56.966 255.223 58.3966 254.598 59.5369V59.5369C253.972 60.6788 252.538 61.0973 251.401 60.4621C249.795 59.5644 248.208 58.6597 246.647 57.7569L246.039 57.4088ZM265.324 67.6624C264.144 67.1124 263.654 65.7009 264.221 64.5292V64.5292C264.788 63.3574 266.197 62.8694 267.377 63.4193C269.248 64.2912 271.052 65.0852 272.819 65.8141C274.023 66.3104 274.625 67.6745 274.153 68.8878V68.8878C273.681 70.1005 272.314 70.703 271.111 70.2074C269.23 69.433 267.313 68.5898 265.324 67.6624ZM286.15 75.0957C284.88 74.8065 284.124 73.5143 284.453 72.2537V72.2537C284.781 70.9944 286.067 70.2436 287.336 70.53C289.26 70.964 291.147 71.3044 292.981 71.5476C294.273 71.7187 295.232 72.8606 295.116 74.1585V74.1585C295 75.4536 293.856 76.4142 292.566 76.248C290.481 75.9792 288.336 75.5932 286.15 75.0957ZM305.932 73.9456C305.754 72.6554 306.658 71.4722 307.935 71.2178C309.747 70.8569 311.517 70.3712 313.234 69.7649C314.461 69.3315 315.843 69.8812 316.354 71.0784V71.0784C316.865 72.2764 316.309 73.6682 315.084 74.1108C312.981 74.8706 310.806 75.4681 308.579 75.8961C307.301 76.1417 306.111 75.2344 305.932 73.9456V73.9456Z" />
    <path
        d="M11.6547 35.7494C11.0556 36.9047 11.5058 38.3268 12.6605 38.927V38.927C13.8169 39.528 15.2415 39.0769 15.8412 37.9199L23.9667 22.244C24.7689 20.6965 26.7165 20.1561 28.2014 21.069L43.2442 30.3175C44.3545 31.0002 45.8079 30.6533 46.4903 29.5428V29.5428C47.1726 28.4326 46.8256 26.9795 45.7154 26.2972L26.352 14.3976C24.8673 13.4852 22.9203 14.0255 22.1181 15.5725L11.6547 35.7494Z" />
</svg>

<?xml version="1.0" encoding="utf-8"?>
<!-- Generator: Adobe Illustrator 16.0.0, SVG Export Plug-In . SVG Version: 6.00 Build 0)  -->
<!DOCTYPE svg PUBLIC "-//W3C//DTD SVG 1.1//EN" "http://www.w3.org/Graphics/SVG/1.1/DTD/svg11.dtd">
<svg version="1.1" id="arrow" fill="#232323" xmlns="http://www.w3.org/2000/svg"
    xmlns:xlink="http://www.w3.org/1999/xlink" x="0px" y="0px" width="321px" height="149px" viewBox="0 0 321 149"
    enable-background="new 0 0 321 149" xml:space="preserve">
    <g>
        <path class='arr_ele' id="arr_head" d="M11.655,35.75c-0.599,1.155-0.149,2.577,1.006,3.177l0,0c1.156,0.601,2.581,0.15,3.181-1.007l8.125-15.676
		c0.802-1.548,2.75-2.088,4.234-1.175l15.043,9.249c1.11,0.683,2.564,0.336,3.246-0.774l0,0c0.683-1.11,0.335-2.563-0.775-3.246
		l-19.363-11.9c-1.485-0.912-3.432-0.372-4.234,1.175L11.655,35.75z" />
        <path class='arr_ele' d="M23.262,20.546c-0.34-1.255,0.406-2.547,1.662-2.885l0,0c1.258-0.338,2.551,0.408,2.892,1.665
		c0.53,1.955,1.069,3.911,1.621,5.867c0.354,1.253-0.368,2.56-1.62,2.92l0,0c-1.251,0.36-2.559-0.362-2.913-1.616
		C24.345,24.514,23.798,22.529,23.262,20.546z" />

    </g>
    <path class='arr_ele' d="M29.47,41.451c-0.414-1.234,0.265-2.563,1.502-2.966l0,0c1.238-0.403,2.567,0.276,2.981,1.51
	c0.638,1.904,1.299,3.796,1.987,5.674c0.448,1.223-0.162,2.583-1.378,3.047l0,0c-1.217,0.463-2.581-0.147-3.029-1.371
	C30.818,45.394,30.132,43.428,29.47,41.451z" />
    <path class='arr_ele' d="M37.607,61.839c-0.565-1.172-0.046-2.574,1.136-3.118l0,0c1.182-0.544,2.58-0.026,3.145,1.147
	c0.875,1.817,1.777,3.58,2.697,5.275c0.622,1.144,0.229,2.583-0.902,3.228l0,0c-1.131,0.644-2.572,0.25-3.193-0.893
	C39.506,65.667,38.542,63.782,37.607,61.839z" />
    <path class='arr_ele' d="M49.008,80.77c-0.787-1.039-0.543-2.514,0.515-3.274l0,0c1.057-0.759,2.526-0.517,3.313,0.52
	c1.498,1.97,3.065,3.858,4.672,5.638l0,0c0.324,0.354,0.301,0.903-0.051,1.229l-2.146,1.986c-0.374,0.346-0.958,0.322-1.302-0.054
	l0,0C52.284,84.906,50.609,82.881,49.008,80.77z" />
    <path class='arr_ele' d="M64.8,96.477c-1.054-0.765-1.237-2.248-0.438-3.276l0,0c0.798-1.027,2.277-1.21,3.332-0.448
	c1.556,1.122,3.165,2.183,4.815,3.173c1.116,0.669,1.529,2.1,0.899,3.238l0,0c-0.631,1.139-2.068,1.555-3.186,0.887
	C68.361,98.939,66.547,97.744,64.8,96.477z" />
    <path class='arr_ele' d="M84.686,106.636c-1.238-0.401-1.87-1.756-1.426-2.979l0,0c0.443-1.223,1.794-1.852,3.033-1.453
	c1.835,0.588,3.682,1.086,5.523,1.49c1.272,0.279,2.13,1.496,1.904,2.779l0,0c-0.226,1.282-1.45,2.144-2.723,1.868
	C88.891,107.885,86.781,107.314,84.686,106.636z" />
    <path class='arr_ele' d="M104.517,107.314c-0.033-1.301,0.998-2.377,2.296-2.476c1.878-0.142,3.723-0.397,5.519-0.766
	c1.276-0.261,2.565,0.481,2.899,1.739l0,0c0.333,1.26-0.416,2.556-1.689,2.824c-2.151,0.454-4.363,0.762-6.611,0.922
	C105.632,109.652,104.549,108.617,104.517,107.314L104.517,107.314z" />
    <path class='arr_ele' d="M125.235,101.719c-0.647-1.13-0.249-2.566,0.839-3.282c0.101-0.065,0.201-0.133,0.301-0.2
	c1.416-0.947,2.779-1.986,4.128-3.147c0.987-0.849,2.474-0.813,3.369,0.133l0,0c0.894,0.946,0.856,2.441-0.127,3.294
	c-1.547,1.342-3.138,2.563-4.749,3.641c-0.192,0.129-0.385,0.256-0.579,0.382C127.325,103.245,125.881,102.85,125.235,101.719
	L125.235,101.719z" />
    <path class='arr_ele' d="M141.039,87.115c-1.035-0.789-1.233-2.265-0.472-3.319c1.061-1.47,2.163-3.078,3.355-4.896
	c0.714-1.09,2.171-1.411,3.267-0.71l0,0c1.097,0.702,1.419,2.161,0.705,3.249c-1.269,1.936-2.443,3.646-3.576,5.211
	C143.555,87.704,142.074,87.903,141.039,87.115L141.039,87.115z" />
    <path class='arr_ele' d="M152.926,68.98c-1.106-0.688-1.446-2.142-0.75-3.243c1.058-1.673,2.211-3.458,3.43-5.25
	c0.732-1.076,2.204-1.327,3.267-0.576l0,0c1.062,0.752,1.313,2.222,0.581,3.298c-1.159,1.708-2.262,3.415-3.277,5.02
	C155.482,69.329,154.031,69.667,152.926,68.98L152.926,68.98z" />
    <path class='arr_ele' d="M165.68,51.479c-0.947-0.893-0.996-2.389-0.065-3.3c1.645-1.611,3.315-3.046,5.042-4.332
	c1.044-0.777,2.511-0.48,3.232,0.603l0,0c0.721,1.083,0.424,2.54-0.613,3.324c-1.44,1.087-2.84,2.294-4.227,3.642
	C168.115,52.323,166.627,52.373,165.68,51.479L165.68,51.479z" />
    <path class='arr_ele' d="M183.607,39.728c-0.401-1.238,0.274-2.573,1.533-2.905c2.139-0.565,4.354-0.971,6.618-1.211
	c1.294-0.138,2.407,0.863,2.48,2.163l0,0c0.073,1.301-0.925,2.407-2.22,2.551c-1.854,0.208-3.664,0.539-5.42,0.989
	C185.338,41.638,184.009,40.966,183.607,39.728L183.607,39.728z" />
    <path class='arr_ele' d="M207.025,41.055c-1.279-0.241-2.168-1.438-1.977-2.726l0,0c0.193-1.289,1.395-2.18,2.676-1.942
	c2.049,0.382,4.155,0.869,6.299,1.458c1.256,0.345,1.957,1.666,1.578,2.912l0,0c-0.379,1.246-1.695,1.944-2.953,1.602
	C210.732,41.836,208.854,41.4,207.025,41.055z" />
    <path class='arr_ele' d="M227.039,47.583c-1.191-0.526-1.756-1.906-1.252-3.106l0,0c0.504-1.202,1.888-1.769,3.081-1.243
	c1.856,0.819,3.746,1.701,5.704,2.663c1.169,0.574,1.633,1.995,1.043,3.157l0,0c-0.59,1.161-2.008,1.624-3.176,1.05
	C230.584,49.193,228.795,48.358,227.039,47.583z" />
    <path class='arr_ele' d="M246.039,57.409c-1.125-0.644-1.52-2.077-0.881-3.206l0,0c0.643-1.138,2.089-1.536,3.224-0.887l0.628,0.36
	c1.531,0.884,3.088,1.772,4.662,2.654c1.135,0.635,1.551,2.066,0.926,3.207l0,0c-0.625,1.142-2.06,1.56-3.197,0.925
	c-1.605-0.897-3.192-1.802-4.754-2.705L246.039,57.409z" />
    <path class='arr_ele' d="M265.324,67.663c-1.18-0.55-1.67-1.961-1.104-3.133l0,0c0.567-1.172,1.977-1.66,3.156-1.11
	c1.871,0.872,3.675,1.666,5.441,2.395c1.205,0.497,1.807,1.86,1.334,3.074l0,0c-0.471,1.213-1.838,1.815-3.041,1.32
	C269.23,69.433,267.313,68.59,265.324,67.663z" />
    <path class='arr_ele' d="M286.15,75.096c-1.271-0.289-2.026-1.582-1.697-2.842l0,0c0.328-1.26,1.613-2.01,2.883-1.724
	c1.924,0.434,3.811,0.774,5.645,1.018c1.293,0.171,2.252,1.313,2.136,2.611l0,0c-0.116,1.294-1.261,2.255-2.55,2.089
	C290.48,75.979,288.336,75.594,286.15,75.096z" />
    <path class='arr_ele' d="M305.932,73.946c-0.178-1.291,0.727-2.474,2.004-2.728c1.812-0.361,3.582-0.847,5.299-1.453
	c1.227-0.433,2.608,0.117,3.119,1.313l0,0c0.512,1.198-0.045,2.59-1.27,3.033c-2.104,0.76-4.277,1.358-6.505,1.786
	C307.301,76.142,306.111,75.234,305.932,73.946L305.932,73.946z" />

</svg>
